X:26
T:Scatter the Mud / The Legacy
R:jig
D:Fr. Charles Coen
Z:Julie Ross
M:6/8
L:1/8
K:G
"Scatter the Mud"
Bd|: eAA BAG | EAA ABd | eAA BAB | dBG GBd |
eAA BAG | EAA AGE | GAB d2e |1 dBA ABd :|2 dBA A3 ||
|: aba g2e | dBG AGE | aba g2e | dBd g3 |
aba g2e | dBG AGE |1 GAB d2e | dBA A3 :|2 GAB dge | dBA ABd ||3 GAB dge | dBA ABA ||
"The Legacy"
K:G
G3 BAB | GBd gab | G3 BAB | dBA AGE |
G3 BAB | GBd gab | age edB |1 dBA ABA :|2 dBA ABd ||
|: ege edB | ded dBd | ege edB | dBA ABd |
ege edB | ded def | gfg efg | dBG ABd ||
ege edB | ded dBd | ege edB | gdB ABd |
ege edB | ded def | gfg efg | dBG AGE ||
